X:1
T:Title
%%score { 1 | 2 }
L:1/8
M:4/4
K:Bb
V:1 treble nm="Grand Piano"
V:2 bass 
V:1
 z4 z2 z[Q:1/4=96] [DF] | [DG][DF][B,D][CE] [DF] [Fd]2 [FB] | cBGB F3 [DF] | %3
 [DG][DF][B,D][CE] [DF] [DB]2 [Fd] | [=Ed][Ec][Ec][EG] [_Ec]3 [EF] | %5
 [DG][DF][B,D][CE] [DF][DB][Fd][FB] | cBGB F3 [B,DF] | %7
[M:17/16] [B,EG][B,FA][B,GB][B,EG][B,DF][B,DB][Ge]3/2[Fd] |[M:7/8] [=Ed][Ec]G A [DB]3 | %9
[M:1/8] [DB] |[M:4/4] cAGF [DB] [Fd]2 [FB] | [Ec][FA][FB][Fc] [Fd]3 [DF] | %12
 [EG][FA][GB][EG] [DF][DB][Ge][Fd] | [=Ec][Ec][Ed][B=e] [Af]3 [F_e] | [Fd][DF][Fd][Ge] d c2 c | %15
 cFcd [Ec] [DB]2 [DF] | [EG][EA][FB][Fc] [Fd] [_Af]2 [Ge] | d2 Bc- c/B/ [DB]3 |] %18
V:2
 z4 z2 z [B,,B,] | [B,,B,][B,,B,][B,,F,][B,,F,] [B,,B,] [B,,B,]2 [D,B,] | %2
 [E,G,E][E,G,E][E,B,E][G,B,E] [B,D]3 [B,,B,] | %3
 [B,,B,][B,,B,][B,,F,][B,,F,] [B,,B,] [B,,B,]2 [B,,B,] | [C,B,][C,B,][C,B,][C,B,] [F,A,]3 [F,A,] | %5
 [B,,B,][B,,B,][B,,F,][B,,F,] [B,,B,][B,,B,][B,,B,][D,B,] | %6
 [E,G,E][E,G,E][E,B,E][G,B,E] [B,D]3 B,, |[M:17/16] E,E,E,E,B,,B,,B,3/2[B,,B,] | %8
[M:7/8] [C,B,][C,B,][F,A,E] [F,E] [B,,F,]3 |[M:1/8] [B,,B,] | %10
[M:4/4] [F,A,E][F,CE][F,B,E][F,A,E] [B,,B,] [B,,B,]2 [D,B,] | %11
 [F,A,][E,C][D,B,][F,A,] [B,,B,]3 [B,,B,] | [E,B,][E,B,][E,B,][E,B,] [B,,B,][B,,B,][B,,B,][B,,B,] | %13
 [C,B,][C,B,][C,B,][C,C] [F,C]3 [F,C] | [B,,B,][B,,B,][B,,B,][B,,B,] [F,A,F] [F,A,E]2 [F,A,E] | %15
 [F,A,E][F,A,E][F,A,E][F,A,F] [B,,B,]3 [B,,B,] | [E,B,][C,C][D,B,][F,A,] [B,,B,] [D,B,]2 [E,B,] | %17
 [F,B,F]2 [F,B,D][F,A,E]- [F,A,E]/[F,D]/ [B,,F,]3 |] %18

